azure-icons/integration-215-Event-Grid-Domains.svg

<svg xmlns="http://www.w3.org/2000/svg" width="18" height="18"><defs><linearGradient id="a" x1="4589.72" y1="-5180.02" x2="4589.72" y2="-5184.21" gradientTransform="matrix(.5 0 0 -.5 -2275.31 -2589.32)" gradientUnits="userSpaceOnUse"><stop offset="0" stop-color="#c69aeb"/><stop offset="1" stop-color="#6f4bb2"/></linearGradient><linearGradient id="b" x1="4587.99" y1="-5188.47" x2="4587.99" y2="-5192.65" href="#a"/></defs><path d="M12.7 8.15v-.6H8.18L6.06 9.66H4.5L8.12 6h2.47v-.57H7.87L3.65 9.66h-.6v.6h1.81L7 12.37h5.1v-.6H7.22l-1.51-1.51h3.67v-.6H6.92l1.5-1.51z" fill="#32bedd"/><circle cx="9.98" cy="9.96" r=".87" fill="#fff"/><circle cx="10.89" cy="5.74" r=".87" fill="#fff"/><circle cx="13" cy="7.85" r=".87" fill="#fff"/><circle cx="12.1" cy="12.07" r=".87" fill="#fff"/><circle cx="10.86" cy="5.74" r="1.05" fill="#50e6ff"/><circle cx="12.97" cy="7.85" r="1.05" fill="url(#a)"/><circle cx="12.1" cy="12.07" r="1.05" fill="url(#b)"/><circle cx="9.98" cy="9.96" r="1.05" fill="#50e6ff"/><g fill="#999"><path d="M1.07 1.43h1.29V5a.29.29 0 01-.29.29H.79A.29.29 0 01.5 5V2a.57.57 0 01.57-.57z"/><path d="M1.07 1.43h1.29V5a.29.29 0 01-.29.29H.79A.29.29 0 01.5 5V2a.57.57 0 01.57-.57z" opacity=".5"/></g><g fill="#999"><path d="M15.64 1.43h1.29a.57.57 0 01.57.57v3a.29.29 0 01-.29.29h-1.29a.29.29 0 01-.28-.29V1.43z"/><path d="M15.64 1.43h1.29a.57.57 0 01.57.57v3a.29.29 0 01-.29.29h-1.29a.29.29 0 01-.28-.29V1.43z" opacity=".5"/></g><path d="M17.5 2v1.25H.5V2a.57.57 0 01.57-.57h15.87a.57.57 0 01.56.57z" fill="#949494"/><g fill="#999"><path d="M.79 12.68h1.29a.29.29 0 01.29.29v3.6h-1.3A.57.57 0 01.5 16v-3a.29.29 0 01.29-.32z"/><path d="M.79 12.68h1.29a.29.29 0 01.29.29v3.6h-1.3A.57.57 0 01.5 16v-3a.29.29 0 01.29-.32z" opacity=".5"/></g><g fill="#999"><path d="M15.92 12.68h1.29a.29.29 0 01.29.29v3a.57.57 0 01-.57.57h-1.29V13a.29.29 0 01.28-.32z"/><path d="M15.92 12.68h1.29a.29.29 0 01.29.29v3a.57.57 0 01-.57.57h-1.29V13a.29.29 0 01.28-.32z" opacity=".5"/></g><path d="M.5 16v-1.25h17V16a.57.57 0 01-.57.57H1.07A.57.57 0 01.5 16z" fill="#949494"/></svg>

<svg xmlns="http://www.w3.org/2000/svg"  width="18" height="18" viewBox="0 0 18 18">
  <defs>
    <linearGradient id="a20547e5-d6af-456b-afbc-05d22ff8cb9d" x1="4589.72" y1="-5180.02" x2="4589.72" y2="-5184.21" gradientTransform="matrix(0.5, 0, 0, -0.5, -2275.31, -2589.32)" gradientUnits="userSpaceOnUse">
      <stop offset="0" stop-color="#c69aeb"/>
      <stop offset="1" stop-color="#6f4bb2"/>
    </linearGradient>
    <linearGradient id="a4745f51-5e75-4126-812d-6bb8a5130e16" x1="4587.99" y1="-5188.47" x2="4587.99" y2="-5192.65" href="#a20547e5-d6af-456b-afbc-05d22ff8cb9d"/>
  </defs>
  <title>Icon-integration-215</title>
  <g>
    <g id="b30b0bd5-e4d2-456b-8d49-c2df20200912">
      <path id="b51878b5-8d50-4b8b-bc48-74f5f7315a99" d="M12.7,8.15v-.6H8.18L6.06,9.66H4.5L8.12,6h2.47V5.43H7.87L3.65,9.66h-.6v.6H4.86L7,12.37H12.1v-.6H7.22L5.71,10.26H9.38v-.6H6.92l1.5-1.51Z" fill="#32bedd"/>
      <circle id="ad0ed4eb-cd5f-4cc0-bd19-2830d27ec806" cx="9.98" cy="9.96" r="0.87" fill="#fff"/>
      <circle id="a2746b4a-0ae4-4308-876e-5b82657e1872" cx="10.89" cy="5.74" r="0.87" fill="#fff"/>
      <circle id="fc3316e0-7094-4ce0-99ed-43f1e6e4350c" cx="13" cy="7.85" r="0.87" fill="#fff"/>
      <circle id="b5d18443-d50e-4590-8e8f-80b6a7f6d348" cx="12.1" cy="12.07" r="0.87" fill="#fff"/>
      <circle cx="10.86" cy="5.74" r="1.05" fill="#50e6ff"/>
      <circle cx="12.97" cy="7.85" r="1.05" fill="url(#a20547e5-d6af-456b-afbc-05d22ff8cb9d)"/>
      <circle cx="12.1" cy="12.07" r="1.05" fill="url(#a4745f51-5e75-4126-812d-6bb8a5130e16)"/>
      <circle cx="9.98" cy="9.96" r="1.05" fill="#50e6ff"/>
      <g>
        <path d="M1.07,1.43H2.36a0,0,0,0,1,0,0V5a.29.29,0,0,1-.29.29H.79A.29.29,0,0,1,.5,5V2A.57.57,0,0,1,1.07,1.43Z" fill="#999"/>
        <path d="M1.07,1.43H2.36a0,0,0,0,1,0,0V5a.29.29,0,0,1-.29.29H.79A.29.29,0,0,1,.5,5V2A.57.57,0,0,1,1.07,1.43Z" fill="#999" opacity="0.5"/>
      </g>
      <g>
        <path d="M15.64,1.43h1.29A.57.57,0,0,1,17.5,2V5a.29.29,0,0,1-.29.29H15.92A.29.29,0,0,1,15.64,5V1.43A0,0,0,0,1,15.64,1.43Z" fill="#999"/>
        <path d="M15.64,1.43h1.29A.57.57,0,0,1,17.5,2V5a.29.29,0,0,1-.29.29H15.92A.29.29,0,0,1,15.64,5V1.43A0,0,0,0,1,15.64,1.43Z" fill="#999" opacity="0.5"/>
      </g>
      <path d="M8.66-6.16H9.91a0,0,0,0,1,0,0v17a0,0,0,0,1,0,0H8.66a.57.57,0,0,1-.57-.57V-5.6A.57.57,0,0,1,8.66-6.16Z" transform="translate(11.34 -6.66) rotate(90)" fill="#949494"/>
      <g>
        <path d="M.79,12.68H2.08a.29.29,0,0,1,.29.29v3.6a0,0,0,0,1,0,0H1.07A.57.57,0,0,1,.5,16V13A.29.29,0,0,1,.79,12.68Z" fill="#999"/>
        <path d="M.79,12.68H2.08a.29.29,0,0,1,.29.29v3.6a0,0,0,0,1,0,0H1.07A.57.57,0,0,1,.5,16V13A.29.29,0,0,1,.79,12.68Z" fill="#999" opacity="0.5"/>
      </g>
      <g>
        <path d="M15.92,12.68h1.29a.29.29,0,0,1,.29.29v3a.57.57,0,0,1-.57.57H15.64a0,0,0,0,1,0,0V13A.29.29,0,0,1,15.92,12.68Z" fill="#999"/>
        <path d="M15.92,12.68h1.29a.29.29,0,0,1,.29.29v3a.57.57,0,0,1-.57.57H15.64a0,0,0,0,1,0,0V13A.29.29,0,0,1,15.92,12.68Z" fill="#999" opacity="0.5"/>
      </g>
      <path d="M8.66,7.16H9.91a0,0,0,0,1,0,0v17a0,0,0,0,1,0,0H8.66a.57.57,0,0,1-.57-.57V7.73A.57.57,0,0,1,8.66,7.16Z" transform="translate(-6.66 24.66) rotate(-90)" fill="#949494"/>
    </g>
  </g>
</svg>
